!!!!SEGMENT: pl-wtm--r-1461--016_stefani-jozef--wszechstronne-cwiczenia-glosowe-oktawy-z-portamento.krn
!!!cenid: 18xx:2193
!!!COM: Stefani, Józef
!!!COM-rismid: pe30024097
!!!CDT: 1800/04/16-1876/03/19
!!!CNT: Polish
!!!GTL: Wszechstronne ćwiczenia głosowe
!!!OTL: Oktawy z portamento
!!!PDT:
!!!AGN: Secular
!!!SMS-siglum: PL-Wtm
!!!SMS-shelfmark: R 1461
!!!SMS-shelfwork: 016 G
!!!SMS-variant:
!!!SMS-altvar:
!!!NIFC-rismid: 1001120710
!!!URL-scan: http://repozytorium.nifc.pl/skany/pl-wtm-nut--r1461
!!!ONB-nifc: UWAGA: skan 0011, s. 18
**kern	**kern	**kern	**text	**dynam
*part2	*part2	*part1	*part1	*part1
*staff3	*staff2	*staff1	*staff1	*
*Iforte	*Iforte	*Itenor	*	*
*I"Fortepian	*I"Fortepian	*I"Sopran/Tenor	*	*
*clefF4	*clefG2	*clefG2	*	*
*k[]	*k[]	*k[]	*	*
*C:	*C:	*C:	*	*
*M4/4	*M4/4	*M4/4	*	*
*met(c)	*met(c)	*met(c)	*	*
=1	=1	=1	=1	=1
*all\right	*all\right	*all\right	*	*
!	!	!	!	!LO:HP:b
4C 4CC/	4r	(>2c/	do	<
4r	4c/	.	.	.
.	.	16qqcc/	.	[
4r	2cc 2g 2e/	4cc\)	do	.
4C 4CC/	.	4r	.	.
=2	=2	=2	=2	=2
!	!	!	!	!LO:HP:b
4BB 4BBB/	4r	(>2d/	re	<
4r	4d/	.	.	.
.	.	16qqdd/	.	[
4r	2dd 2g 2f/	4dd\)	re	.
4BB 4BBB/	.	4r	.	.
=3	=3	=3	=3	=3
*k[]	*k[]	*k[]	*	*
!	!	!	!	!LO:HP:b
4C 4CC/	4r	(>2e/	mi	<
4r	4e/	.	.	.
.	.	16qqee/	.	[
4r	2ee 2cc 2g/	4ee\)	mi	.
4C 4CC/	.	4r	.	.
=4	=4	=4	=4	=4
!	!	!	!	!LO:HP:b
4AA 4AAA/	4r	(>2f/	fa	<
4r	4f/	.	.	.
.	.	16qqff/	.	[
*	*2\right	*	*	*
4r	2ff 2cc 2f\	4ff\)	fa	.
4AA 4AAA/	.	4r	.	.
=5	=5	=5	=5	=5
!	!	!	!	!LO:HP:b
4E 4EE/	4r	(>2g/	sol	<
4r	4g/	.	.	.
.	.	16qqgg/	.	[
4r	2gg 2cc 2g\	4gg\)	sol	.
4E 4EE/	.	4r	.	.
!!LO:LB:g=original
=6	=6	=6	=6	=6
!	!	!	!	!LO:HP:b
4F 4FF/	4r	(>2a/	la	<
4r	4a/	.	.	.
.	.	16qqaa/	.	[
4r	2aa 2ff 2cc\	4aa\)	la	.
4F 4FF/	.	4r	.	.
=7||	=7||	=7||	=7||	=7||
*	*	*2\right	*	*
!	!	!	!	!LO:HP:b
4F#X 4FF#X/	4r	(>2aa\	la	>
4r	4aa 4a\	.	.	.
.	.	16qqa/	.	]
4r	2a 2d 2c/	4a/)	la	.
4F# 4FF#/	.	4r	.	.
=8	=8	=8	=8	=8
!	!	!	!	!LO:HP:b
4G 4GG/	4r	(>2gg\	sol	>
4r	4gg 4g\	.	.	.
.	.	16qqg/	.	]
4r	2g 2d 2B/	4g/)	sol	.
4G 4GG/	.	4r	.	.
=9	=9	=9	=9	=9
!	!	!	!	!LO:HP:b
4BB 4BBB/	4r	(>2ff\	fa	>
4rBB	4ff 4f\	.	.	.
.	.	16qqf/	.	]
4rBB	2f 2d 2G</	4f/)	fa	.
4BB 4BBB/	.	4r	.	.
=10	=10	=10	=10	=10
!	!	!	!	!LO:HP:b
4C 4CC/	4r	(>2ee\	mi	>
4rBB	4ee 4e/	.	.	.
.	.	16qqe/	.	]
4rBB	2e 2c 2G</	4e/)	mi	.
4C 4CC/	.	4r	.	.
!!LO:LB:g=original
=11	=11	=11	=11	=11
!	!	!	!	!LO:HP:a
4F 4FF\	4r	(>2dd\	re	>
4rBB	4dd 4d/	.	.	.
.	.	16qqd/	.	]
4rBB	2d 2B 2G</	4d/)	re	.
4F 4FF\	.	4r	.	.
=12	=12	=12	=12	=12
!	!	!	!	!LO:HP:a
4E 4EE\	4r	(>2cc\	do	>
4rBB	4cc 4c/	.	.	.
.	.	16qqc/	.	]
4rBB	2c 2G</	4c/)	do	.
4E 4EE\	.	4r	.	.
=13	=13	=13	=13	=13
!	!	!	!	!LO:HP:a
4F 4FF\	4r	(<1d	re	<
4rBB	4d 4c 4A</	.	.	.
!	!	!	!	!LO:HP:a
4G 4GG\	4r	.	.	[>
4rBB	4d 4B 4G< 4F</	.	.	.
.	.	16qqc/	.	]
=14	=14	=14	=14	=14
4C 4CC\	4c 4G< 4E</	4c/)	do.	.
4r	4r	4r	.	.
2r	2r	2r	.	.
==	==	==	==	==
*-	*-	*-	*-	*-
!!!system-decoration: s1{(s2,s3)}
!!!RDF**kern: > = above
!!!RDF**kern: < = below
!!!EED: Antoni Szymański
!!!EST: 2021-06-03
!!!AIN: 1 forte 1 tenor
!!!ENC: Katarzyna Serwa
!!!END: 2021-05-17
